apps/22/utilities-terminal.svg

<?xml version="1.0" encoding="UTF-8" standalone="no"?>
<!-- Created with Inkscape (http://www.inkscape.org/) -->

<svg
   xmlns:svg="http://www.w3.org/2000/svg"
   xmlns="http://www.w3.org/2000/svg"
   xmlns:xlink="http://www.w3.org/1999/xlink"
   version="1.0"
   width="22"
   height="22"
   id="svg2489">
  <defs
     id="defs2491">
    <linearGradient
       id="linearGradient4008-764">
      <stop
         id="stop4334"
         style="stop-color:#595959;stop-opacity:1"
         offset="0" />
      <stop
         id="stop4336"
         style="stop-color:#b3b3b3;stop-opacity:1"
         offset="1" />
    </linearGradient>
    <linearGradient
       x1="10.591816"
       y1="44.780193"
       x2="10.591816"
       y2="2.4255774"
       id="linearGradient2479"
       xlink:href="#linearGradient4008-764"
       gradientUnits="userSpaceOnUse"
       gradientTransform="matrix(0.4467867,0,0,0.4150801,0.2771304,1.0329907)" />
    <linearGradient
       id="linearGradient3023">
      <stop
         id="stop3029"
         style="stop-color:#d8d8d8;stop-opacity:1"
         offset="0" />
      <stop
         id="stop3031"
         style="stop-color:#8f8f8f;stop-opacity:1"
         offset="1" />
    </linearGradient>
    <linearGradient
       x1="13.423729"
       y1="2"
       x2="13.423729"
       y2="22.050611"
       id="linearGradient2477"
       xlink:href="#linearGradient3023"
       gradientUnits="userSpaceOnUse"
       gradientTransform="matrix(0.9130354,0,0,0.894725,0.04357448,0.2632996)" />
    <linearGradient
       id="linearGradient2238">
      <stop
         id="stop2240"
         style="stop-color:white;stop-opacity:1"
         offset="0" />
      <stop
         id="stop2242"
         style="stop-color:white;stop-opacity:0"
         offset="1" />
    </linearGradient>
    <linearGradient
       x1="22.762604"
       y1="-4.8771"
       x2="22.762604"
       y2="43.84375"
       id="linearGradient2474"
       xlink:href="#linearGradient2238"
       gradientUnits="userSpaceOnUse"
       gradientTransform="matrix(0.4218074,0,0,0.3842122,0.8761111,2.1654185)" />
    <linearGradient
       id="linearGradient4128">
      <stop
         id="stop4130"
         style="stop-color:#3d434a;stop-opacity:1"
         offset="0" />
      <stop
         id="stop4132"
         style="stop-color:black;stop-opacity:1"
         offset="1" />
    </linearGradient>
    <radialGradient
       cx="16.352173"
       cy="12.225069"
       r="19.170427"
       fx="16.352173"
       fy="12.225069"
       id="radialGradient2471"
       xlink:href="#linearGradient4128"
       gradientUnits="userSpaceOnUse"
       gradientTransform="matrix(0,0.4319383,-1.0271135,0,22.155923,2.1804656)" />
    <linearGradient
       x1="19.362526"
       y1="20.069984"
       x2="19.362526"
       y2="34.400269"
       id="linearGradient2468"
       xlink:href="#linearGradient4182"
       gradientUnits="userSpaceOnUse"
       gradientTransform="matrix(0.2850258,0,0,0.3071564,-0.5604114,1.4777086)" />
    <linearGradient
       id="linearGradient4182">
      <stop
         id="stop4184"
         style="stop-color:#e4e5e8;stop-opacity:1"
         offset="0" />
      <stop
         id="stop4186"
         style="stop-color:#b3bbc7;stop-opacity:1"
         offset="1" />
    </linearGradient>
    <linearGradient
       x1="19.362526"
       y1="20.069984"
       x2="19.362526"
       y2="34.400269"
       id="linearGradient2487"
       xlink:href="#linearGradient4182"
       gradientUnits="userSpaceOnUse"
       gradientTransform="matrix(0.2612737,0,0,0.3455509,0.6529553,-0.2125759)" />
    <linearGradient
       id="linearGradient8265-821-176-38-919-66-249-2">
      <stop
         id="stop2687-1"
         style="stop-color:white;stop-opacity:1"
         offset="0" />
      <stop
         id="stop2689-3"
         style="stop-color:white;stop-opacity:0"
         offset="1" />
    </linearGradient>
    <linearGradient
       x1="16.626165"
       y1="15.298182"
       x2="20.054544"
       y2="24.627615"
       id="linearGradient2465"
       xlink:href="#linearGradient8265-821-176-38-919-66-249-2"
       gradientUnits="userSpaceOnUse"
       gradientTransform="matrix(0.4332963,0,0,0.4728788,0.6008887,0.2364611)" />
  </defs>
  <g
     id="layer1">
    <rect
       width="20.997868"
       height="16.997868"
       rx="1.5917214"
       ry="1.5917214"
       x="0.50106621"
       y="2.5010662"
       id="rect1316"
       style="fill:url(#linearGradient2477);fill-opacity:1;fill-rule:evenodd;stroke:url(#linearGradient2479);stroke-width:1.00213301;stroke-linecap:round;stroke-linejoin:round;stroke-miterlimit:4;stroke-opacity:1;stroke-dasharray:none;stroke-dashoffset:0" />
    <rect
       width="18.997866"
       height="14.997867"
       rx="0.61766976"
       ry="0.6176697"
       x="1.5010664"
       y="3.5010664"
       id="rect2232"
       style="opacity:0.4;fill:none;stroke:url(#linearGradient2474);stroke-width:1.00213301;stroke-linecap:round;stroke-linejoin:round;stroke-miterlimit:4;stroke-opacity:1;stroke-dasharray:none;stroke-dashoffset:0" />
    <rect
       width="16.997868"
       height="12.997867"
       rx="0"
       ry="0"
       x="2.5010664"
       y="4.5010667"
       id="rect1314"
       style="fill:url(#radialGradient2471);fill-opacity:1;fill-rule:evenodd;stroke:#1e1f1f;stroke-width:1.00213289;stroke-linecap:round;stroke-linejoin:round;stroke-miterlimit:4;stroke-opacity:1;stroke-dasharray:none;stroke-dashoffset:0" />
    <path
       d="M 8.5604139,10.111111 C 7.0402761,10.813666 5.5201378,11.630778 4,12.333334 4,12.027654 4,11.750123 4,11.444445 5.2035733,10.905706 6.4327907,10.205404 7.636364,9.6666664 6.4327907,9.1329965 5.2035733,8.42256 4,7.8888889 4,7.5882766 4,7.3006119 4,7 c 1.5201378,0.6924208 3.0402761,1.5297999 4.5604139,2.2222217 0,0.2837242 0,0.6051651 0,0.8888893 z"
       id="path2485"
       style="font-size:22.23835945px;font-style:normal;font-variant:normal;font-weight:normal;font-stretch:normal;text-align:start;line-height:125%;writing-mode:lr-tb;text-anchor:start;fill:url(#linearGradient2468);fill-opacity:1;stroke:none;font-family:OpenSymbol;-inkscape-font-specification:OpenSymbol" />
    <path
       d="m 14,14 c 0,0.333334 0,0.666666 0,1 -1.528496,0 -3.471504,0 -5,0 0,-0.333334 0,-0.666666 0,-1 1.528496,0 3.471504,0 5,0 z"
       id="text4138"
       style="font-size:22.23835945px;font-style:normal;font-variant:normal;font-weight:normal;font-stretch:normal;text-align:start;line-height:125%;writing-mode:lr-tb;text-anchor:start;fill:url(#linearGradient2487);fill-opacity:1;stroke:none;font-family:OpenSymbol;-inkscape-font-specification:OpenSymbol" />
    <path
       d="m 1.9955613,3.0589564 c -0.5235421,0 -0.9478357,0.4630539 -0.9478357,1.0344224 l 0,7.5660612 c 0.0012,0.06365 0.026777,0.123842 0.070519,0.165965 0.043742,0.04212 0.101651,0.06232 0.1596697,0.05569 L 20.776248,8.5118401 c 0.100299,-0.017264 0.174625,-0.1108586 0.176027,-0.2216621 l 0,-4.1967992 c 0,-0.5713685 -0.424295,-1.0344224 -0.947837,-1.0344224 l -18.0088767,0 0,0 z"
       id="path2976"
       style="opacity:0.2;fill:url(#linearGradient2465);fill-opacity:1;fill-rule:evenodd;stroke:none" />
  </g>
</svg>

<?xml version="1.0" encoding="UTF-8" standalone="no"?>
<!-- Created with Inkscape (http://www.inkscape.org/) -->
<svg
   xmlns:svg="http://www.w3.org/2000/svg"
   xmlns="http://www.w3.org/2000/svg"
   xmlns:xlink="http://www.w3.org/1999/xlink"
   version="1.0"
   width="22"
   height="22"
   id="svg2489">
  <defs
     id="defs2491">
    <linearGradient
       id="linearGradient4008-764">
      <stop
         id="stop4334"
         style="stop-color:#595959;stop-opacity:1"
         offset="0" />
      <stop
         id="stop4336"
         style="stop-color:#b3b3b3;stop-opacity:1"
         offset="1" />
    </linearGradient>
    <linearGradient
       x1="10.591816"
       y1="44.780193"
       x2="10.591816"
       y2="2.4255774"
       id="linearGradient2479"
       xlink:href="#linearGradient4008-764"
       gradientUnits="userSpaceOnUse"
       gradientTransform="matrix(0.4467867,0,0,0.4150801,0.2771304,1.0329907)" />
    <linearGradient
       id="linearGradient3023">
      <stop
         id="stop3029"
         style="stop-color:#d8d8d8;stop-opacity:1"
         offset="0" />
      <stop
         id="stop3031"
         style="stop-color:#8f8f8f;stop-opacity:1"
         offset="1" />
    </linearGradient>
    <linearGradient
       x1="13.423729"
       y1="2"
       x2="13.423729"
       y2="22.050611"
       id="linearGradient2477"
       xlink:href="#linearGradient3023"
       gradientUnits="userSpaceOnUse"
       gradientTransform="matrix(0.9130354,0,0,0.894725,4.3574482e-2,0.2632996)" />
    <linearGradient
       id="linearGradient2238">
      <stop
         id="stop2240"
         style="stop-color:#ffffff;stop-opacity:1"
         offset="0" />
      <stop
         id="stop2242"
         style="stop-color:#ffffff;stop-opacity:0"
         offset="1" />
    </linearGradient>
    <linearGradient
       x1="22.762604"
       y1="-4.8771"
       x2="22.762604"
       y2="43.84375"
       id="linearGradient2474"
       xlink:href="#linearGradient2238"
       gradientUnits="userSpaceOnUse"
       gradientTransform="matrix(0.4218074,0,0,0.3842122,0.8761111,2.1654185)" />
    <linearGradient
       id="linearGradient4128">
      <stop
         id="stop4130"
         style="stop-color:#3d434a;stop-opacity:1"
         offset="0" />
      <stop
         id="stop4132"
         style="stop-color:#000000;stop-opacity:1"
         offset="1" />
    </linearGradient>
    <radialGradient
       cx="16.352173"
       cy="12.225069"
       r="19.170427"
       fx="16.352173"
       fy="12.225069"
       id="radialGradient2471"
       xlink:href="#linearGradient4128"
       gradientUnits="userSpaceOnUse"
       gradientTransform="matrix(0,0.4319383,-1.0271135,0,22.155923,2.1804656)" />
    <linearGradient
       x1="19.362526"
       y1="20.069984"
       x2="19.362526"
       y2="34.400269"
       id="linearGradient2468"
       xlink:href="#linearGradient4182"
       gradientUnits="userSpaceOnUse"
       gradientTransform="matrix(0.2850258,0,0,0.3071564,-0.5604114,1.4777086)" />
    <linearGradient
       id="linearGradient4182">
      <stop
         id="stop4184"
         style="stop-color:#e4e5e8;stop-opacity:1"
         offset="0" />
      <stop
         id="stop4186"
         style="stop-color:#b3bbc7;stop-opacity:1"
         offset="1" />
    </linearGradient>
    <linearGradient
       x1="19.362526"
       y1="20.069984"
       x2="19.362526"
       y2="34.400269"
       id="linearGradient2487"
       xlink:href="#linearGradient4182"
       gradientUnits="userSpaceOnUse"
       gradientTransform="matrix(0.2612737,0,0,0.3455509,0.6529553,-0.2125759)" />
    <linearGradient
       id="linearGradient8265-821-176-38-919-66-249-2">
      <stop
         id="stop2687-1"
         style="stop-color:#ffffff;stop-opacity:1"
         offset="0" />
      <stop
         id="stop2689-3"
         style="stop-color:#ffffff;stop-opacity:0"
         offset="1" />
    </linearGradient>
    <linearGradient
       x1="16.626165"
       y1="15.298182"
       x2="20.054544"
       y2="24.627615"
       id="linearGradient2465"
       xlink:href="#linearGradient8265-821-176-38-919-66-249-2"
       gradientUnits="userSpaceOnUse"
       gradientTransform="matrix(0.4332963,0,0,0.4728788,0.6008887,0.2364611)" />
  </defs>
  <g
     id="layer1">
    <rect
       width="20.997868"
       height="16.997868"
       rx="1.5917214"
       ry="1.5917214"
       x="0.50106621"
       y="2.5010662"
       id="rect1316"
       style="fill:url(#linearGradient2477);fill-opacity:1;fill-rule:evenodd;stroke:url(#linearGradient2479);stroke-width:1.00213301;stroke-linecap:round;stroke-linejoin:round;stroke-miterlimit:4;stroke-dasharray:none;stroke-dashoffset:0;stroke-opacity:1" />
    <rect
       width="18.997866"
       height="14.997867"
       rx="0.61766976"
       ry="0.6176697"
       x="1.5010664"
       y="3.5010664"
       id="rect2232"
       style="opacity:0.4;fill:none;stroke:url(#linearGradient2474);stroke-width:1.00213301;stroke-linecap:round;stroke-linejoin:round;stroke-miterlimit:4;stroke-dasharray:none;stroke-dashoffset:0;stroke-opacity:1" />
    <rect
       width="16.997868"
       height="12.997867"
       rx="0"
       ry="0"
       x="2.5010664"
       y="4.5010667"
       id="rect1314"
       style="fill:url(#radialGradient2471);fill-opacity:1;fill-rule:evenodd;stroke:#1e1f1f;stroke-width:1.00213289;stroke-linecap:round;stroke-linejoin:round;stroke-miterlimit:4;stroke-dasharray:none;stroke-dashoffset:0;stroke-opacity:1" />
    <path
       d="M 8.5604139,10.111111 C 7.0402761,10.813666 5.5201378,11.630778 4,12.333334 C 4,12.027654 4,11.750123 4,11.444445 C 5.2035733,10.905706 6.4327907,10.205404 7.636364,9.6666664 C 6.4327907,9.1329965 5.2035733,8.42256 4,7.8888889 C 4,7.5882766 4,7.3006119 4,7 C 5.5201378,7.6924208 7.0402761,8.5297999 8.5604139,9.2222217 C 8.5604139,9.5059459 8.5604139,9.8273868 8.5604139,10.111111 z"
       id="path2485"
       style="font-size:22.23835945px;font-style:normal;font-variant:normal;font-weight:normal;font-stretch:normal;text-align:start;line-height:125%;writing-mode:lr-tb;text-anchor:start;fill:url(#linearGradient2468);fill-opacity:1;stroke:none;font-family:OpenSymbol;-inkscape-font-specification:OpenSymbol" />
    <path
       d="M 14,14 C 14,14.333334 14,14.666666 14,15 C 12.471504,15 10.528496,15 9,15 C 9,14.666666 9,14.333334 9,14 C 10.528496,14 12.471504,14 14,14 z"
       id="text4138"
       style="font-size:22.23835945px;font-style:normal;font-variant:normal;font-weight:normal;font-stretch:normal;text-align:start;line-height:125%;writing-mode:lr-tb;text-anchor:start;fill:url(#linearGradient2487);fill-opacity:1;stroke:none;font-family:OpenSymbol;-inkscape-font-specification:OpenSymbol" />
    <path
       d="M 1.9955613,3.0589564 C 1.4720192,3.0589564 1.0477256,3.5220103 1.0477256,4.0933788 L 1.0477256,11.65944 C 1.0489289,11.723091 1.0745027,11.783282 1.1182447,11.825405 C 1.1619868,11.867527 1.2198957,11.887724 1.2779144,11.881098 L 20.776248,8.5118401 C 20.876547,8.4945765 20.950873,8.4009815 20.952275,8.290178 L 20.952275,4.0933788 C 20.952275,3.5220103 20.52798,3.0589564 20.004438,3.0589564 L 1.9955613,3.0589564 L 1.9955613,3.0589564 z"
       id="path2976"
       style="opacity:0.2;fill:url(#linearGradient2465);fill-opacity:1;fill-rule:evenodd;stroke:none" />
  </g>
</svg>
